static/assets/img/icons/theme/food/french-bread.svg

<svg height="24" viewBox="0 0 24 24" width="24" xmlns="http://www.w3.org/2000/svg"><g fill="none" fill-rule="evenodd"><path d="m0 0h24v24h-24z" opacity="0"/><path d="m11.19545 6.19223206c.0987009.07360764.2127461.13009674.3389247.16390619l3.2686684.87583707c.5334661.14294181 1.0818031-.17364068 1.2247449-.70710678s-.1736407-1.08180306-.7071068-1.22474487l-2.0931279-.56085194c3.2678888-2.07744534 6.2603371-2.72194413 7.6112815-1.37099971 1.9526214 1.95262146-.263456 7.33452378-4.9497475 12.02081528s-10.06819382 6.9023689-12.02081528 4.9497475c-1.24278477-1.2427848-.79685495-3.8747504.89986897-6.8323757.02162431.0074035.04364926.0141228.06605685.0201269l2.89777748.7764571c.5334661.1429418 1.08180306-.1736406 1.22474487-.7071067.14294181-.5334662-.17364067-1.0818031-.70710678-1.2247449l-2.34626551-.62868c.47165494-.6619859.99840528-1.3295397 1.57574829-1.99172614.01777806.00583994.03582107.01121988.05411925.01612286l3.73429376 1.00060098c.5334661.1429418 1.0818031-.1736407 1.2247449-.7071068.1429418-.53346606-.1736407-1.08180301-.7071068-1.22474483l-2.74651946-.73592767c.70931627-.6944676 1.43296196-1.33223757 2.15682216-1.90749784z" fill="#000"/></g></svg>

<svg width="24px" height="24px" viewBox="0 0 24 24" version="1.1" xmlns="http://www.w3.org/2000/svg" xmlns:xlink="http://www.w3.org/1999/xlink">
    <title>Icon For French Bread</title>
    <g stroke="none" stroke-width="1" fill="none" fill-rule="evenodd">
        <rect opacity="0" x="0" y="0" width="24" height="24"></rect>
        <path d="M11.19545,6.19223206 C11.2941509,6.2658397 11.4081961,6.3223288 11.5343747,6.35613825 L14.8030431,7.23197532 C15.3365092,7.37491713 15.8848462,7.05833464 16.027788,6.52486854 C16.1707298,5.99140244 15.8541473,5.44306548 15.3206812,5.30012367 L13.2275533,4.73927173 C16.4954421,2.66182639 19.4878904,2.0173276 20.8388348,3.36827202 C22.7914562,5.32089348 20.5753788,10.7027958 15.8890873,15.3890873 C11.2027958,20.0753788 5.82089348,22.2914562 3.86827202,20.3388348 C2.62548725,19.09605 3.07141707,16.4640844 4.76814099,13.5064591 C4.7897653,13.5138626 4.81179025,13.5205819 4.83419784,13.526586 L7.73197532,14.3030431 C8.26544142,14.4459849 8.81377838,14.1294025 8.95672019,13.5959364 C9.099662,13.0624702 8.78307952,12.5141333 8.24961341,12.3711915 L5.9033479,11.7425115 C6.37500284,11.0805256 6.90175318,10.4129718 7.47909619,9.75078536 C7.49687425,9.7566253 7.51491726,9.76200524 7.53321544,9.76690822 L11.2675092,10.7675092 C11.8009753,10.910451 12.3493123,10.5938685 12.4922541,10.0604024 C12.6351959,9.52693634 12.3186134,8.97859939 11.7851473,8.83565757 L9.03862784,8.0997299 C9.74794411,7.4052623 10.4715898,6.76749233 11.19545,6.19223206 Z" fill="#000000"></path>
    </g>
</svg>
